resources/export-icons/complex.svg

<?xml version="1.0" encoding="UTF-8"?>
<svg width="24px" height="24px" viewBox="0 0 24 24" version="1.1" xmlns="http://www.w3.org/2000/svg" xmlns:xlink="http://www.w3.org/1999/xlink">
    <!-- Generator: Sketch 41.2 (35397) - http://www.bohemiancoding.com/sketch -->
    <title>export-icons/complex</title>
    <desc>Created with Sketch.</desc>
    <defs>
        <path d="M19.9609375,16.7246094 C19.9609375,16.8177088 19.9313154,16.9108068 19.8720703,17.0039062 C19.1949836,18.0279999 18.1433991,18.8616504 16.7172852,19.5048828 C15.2911713,20.1481152 13.9179754,20.4697266 12.5976562,20.4697266 C9.90623654,20.4697266 7.748055,19.6318443 6.12304688,17.9560547 C4.49803875,16.2802651 3.68554688,14.0945773 3.68554688,11.3989258 C3.68554688,8.70327428 4.50015461,6.51547064 6.12939453,4.83544922 C7.75863445,3.1554278 9.91470013,2.31542969 12.5976562,2.31542969 C13.4186239,2.31542969 14.3432566,2.5100892 15.371582,2.89941406 C16.3999075,3.28873893 17.1595028,3.48339844 17.6503906,3.48339844 C17.9973976,3.48339844 18.2259109,3.28873893 18.3359375,2.89941406 C18.4459641,2.5100892 18.6110015,2.31542969 18.8310547,2.31542969 C19.1018894,2.31542969 19.2373047,2.44238154 19.2373047,2.69628906 L19.2373047,7.73632812 C19.2373047,8.02408998 19.1018894,8.16796875 18.8310547,8.16796875 C18.6448558,8.16796875 18.4967453,8.05794381 18.3867188,7.83789062 C18.2766922,7.54166519 18.0904961,7.11002888 17.828125,6.54296875 C17.3626279,5.69661035 16.6051485,4.9243199 15.5556641,4.22607422 C14.5061796,3.52782854 13.5201869,3.17871094 12.5976562,3.17871094 C10.9726481,3.17871094 9.76237377,4.19855751 8.96679688,6.23828125 C8.38280958,7.72787203 8.09082031,9.44595381 8.09082031,11.3925781 C8.09082031,16.6400002 9.69464542,19.2636719 12.9023438,19.2636719 C15.0097762,19.2636719 16.7786387,18.6035222 18.2089844,17.2832031 L19.0722656,16.4199219 C19.1992194,16.3014317 19.3177078,16.2421875 19.4277344,16.2421875 C19.7832049,16.2421875 19.9609375,16.4029932 19.9609375,16.7246094 Z M18.3613281,4.15625 C18.1497385,4.28320376 17.9339204,4.34667969 17.7138672,4.34667969 C17.493814,4.34667969 17.2864593,4.3339845 17.0917969,4.30859375 C17.6165391,4.78255445 18.0397119,5.25650805 18.3613281,5.73046875 L18.3613281,4.15625 Z M7.21484375,11.3925781 C7.21484375,7.90558152 7.97655488,5.33692231 9.5,3.68652344 C7.87499188,4.27051073 6.64355888,5.25227175 5.80566406,6.63183594 C4.96776925,8.01140013 4.54882812,9.62368869 4.54882812,11.46875 C4.54882812,13.3138113 4.99950721,14.9366792 5.90087891,16.3374023 C6.8022506,17.7381255 8.12889749,18.7008437 9.88085938,19.2255859 C8.10350674,17.8798761 7.21484375,15.2688996 7.21484375,11.3925781 Z" id="path-1"></path>
    </defs>
    <g id="Symbols" stroke="none" stroke-width="1" fill="none" fill-rule="evenodd">
        <g id="export-icons/complex">
            <mask id="mask-2" fill="white">
                <use xlink:href="#path-1"></use>
            </mask>
            <use id="ℂ" fill-opacity="0.87" fill="#000000" xlink:href="#path-1"></use>
        </g>
    </g>
</svg>

<svg width="24" height="24" viewBox="0 0 24 24" xmlns="http://www.w3.org/2000/svg" xmlns:xlink="http://www.w3.org/1999/xlink"><title>export-icons/complex</title><defs><path d="M19.96 16.725c0 .093-.03.186-.088.28-.677 1.023-1.73 1.857-3.155 2.5-1.426.643-2.8.965-4.12.965-2.69 0-4.85-.838-6.474-2.514-1.625-1.676-2.437-3.86-2.437-6.557 0-2.697.814-4.885 2.443-6.565 1.63-1.68 3.785-2.52 6.468-2.52.82 0 1.745.195 2.774.584 1.028.39 1.788.583 2.278.583.347 0 .576-.194.686-.584.11-.39.275-.585.495-.585.272 0 .407.127.407.38v5.04c0 .29-.135.433-.406.433-.185 0-.333-.11-.443-.33-.11-.296-.297-.728-.56-1.295-.464-.846-1.222-1.62-2.27-2.317-1.05-.698-2.037-1.047-2.96-1.047-1.624 0-2.835 1.02-3.63 3.058-.584 1.49-.876 3.208-.876 5.155 0 5.247 1.605 7.87 4.812 7.87 2.108 0 3.877-.66 5.307-1.98l.862-.863c.127-.12.246-.178.356-.178.355 0 .533.16.533.483zm-1.6-12.57c-.21.128-.426.192-.646.192-.22 0-.428-.013-.622-.038.525.473.948.947 1.27 1.42V4.156zM7.216 11.394c0-3.487.762-6.056 2.285-7.706-1.625.584-2.856 1.565-3.694 2.945-.838 1.38-1.257 2.992-1.257 4.837 0 1.844.45 3.467 1.35 4.867.902 1.4 2.23 2.364 3.98 2.89-1.776-1.347-2.665-3.958-2.665-7.834z" id="a"/></defs><use fill-opacity=".87" fill="#000" xlink:href="#a" fill-rule="evenodd"/></svg>
